src/assets/yozh.svg

<?xml version="1.0" encoding="UTF-8"?>
<svg width="244px" height="92px" viewBox="0 0 244 92" version="1.1" xmlns="http://www.w3.org/2000/svg" xmlns:xlink="http://www.w3.org/1999/xlink">
    <!-- Generator: Sketch 61 (89581) - https://sketch.com -->
    <title>yozh</title>
    <desc>Created with Sketch.</desc>
    <defs>
        <linearGradient x1="90.9143655%" y1="47.6646347%" x2="-16.9706424%" y2="58.212145%" id="linearGradient-1">
            <stop stop-color="#C00000" offset="0%"></stop>
            <stop stop-color="#D20000" offset="32.1579392%"></stop>
            <stop stop-color="#FF2B2B" offset="100%"></stop>
        </linearGradient>
    </defs>
    <g id="final" stroke="none" stroke-width="1" fill="none" fill-rule="evenodd">
        <path d="M244,92 C234.606061,85.8666667 226.151515,80.7555556 218.636364,76.6666667 C211.121212,72.5777778 203.606061,69.2291188 196.090909,66.6206897 C201.727273,65.1402299 206.424242,63.3777778 210.181818,61.3333333 C213.939394,59.2888889 217.69697,56.2222222 221.454545,52.1333333 C204.545455,48.0444444 192.333333,44.9777778 184.818182,42.9333333 C177.30303,40.8888889 169.787879,38.2099617 162.272727,34.8965517 L190.454545,22.2068966 C177.30303,19.6689655 165.090909,18.4 153.818182,18.4 C142.545455,18.4 134.090909,19.4222222 128.454545,21.4666667 C129.056555,17.7647035 129.995949,14.6980368 131.272727,12.2666667 C132.549506,9.83529651 135.367687,5.74640762 139.727273,0 C127.189565,3.39719368 117.795626,6.46386034 111.545455,9.2 C105.295283,11.9361397 97.780132,16.2717718 89,22.2068966 L86.1818182,0 C78.6581764,18.3987957 66.4460552,35.7765735 49.5454545,52.1333333 C29.8181818,71.2258065 7.27272727,83.1956989 1.63636364,86.0645161 C1.61747967,86.0741278 1.5986068,86.0838245 1.57974504,86.0936064 L1.57974436,86.0936051 C0.206973605,86.8055374 -0.328741797,88.4955232 0.383190516,89.8682939 C0.904992647,90.8744495 1.98189974,91.4667897 3.11106342,91.3687286 C45.3481839,87.7006873 83.3717688,85.8666667 117.181818,85.8666667 C152.878788,85.8666667 195.151515,87.9111111 244,92 Z" id="yozh" fill="url(#linearGradient-1)"></path>
    </g>
</svg>

<svg width="244" height="92" xmlns="http://www.w3.org/2000/svg"><defs><linearGradient x1="90.914%" y1="47.665%" x2="-16.971%" y2="58.212%" id="a"><stop stop-color="#C00000" offset="0%"/><stop stop-color="#D20000" offset="32.158%"/><stop stop-color="#FF2B2B" offset="100%"/></linearGradient></defs><path d="M244 92c-9.394-6.133-17.848-11.244-25.364-15.333-7.515-4.09-15.03-7.438-22.545-10.046 5.636-1.48 10.333-3.243 14.09-5.288 3.758-2.044 7.516-5.11 11.274-9.2-16.91-4.089-29.122-7.155-36.637-9.2-7.515-2.044-15.03-4.723-22.545-8.036l28.182-12.69c-13.152-2.538-25.364-3.807-36.637-3.807s-19.727 1.022-25.363 3.067c.602-3.702 1.54-6.769 2.818-9.2 1.277-2.432 4.095-6.52 8.454-12.267-12.537 3.397-21.931 6.464-28.182 9.2-6.25 2.736-13.765 7.072-22.545 13.007L86.182 0c-7.524 18.399-19.736 35.777-36.637 52.133C29.818 71.226 7.273 83.196 1.636 86.065l-.056.029a2.8 2.8 0 0 0 1.531 5.275c42.237-3.668 80.26-5.502 114.07-5.502 35.698 0 77.97 2.044 126.819 6.133z" fill="url(#a)" fill-rule="evenodd"/></svg>
